static/img/voices-logo-hebrew.svg

<?xml version="1.0" encoding="UTF-8"?>
<svg id="Layer_2" data-name="Layer 2" xmlns="http://www.w3.org/2000/svg" viewBox="0 0 911.76 153.12">
  <defs>
    <style>
      .cls-1 {
        fill: #231f20;
      }

      .cls-2 {
        fill: #49966c;
      }
    </style>
  </defs>
  <g id="Layer_1-2" data-name="Layer 1">
    <g>
      <path class="cls-2" d="M909.96,61.33c-2.47-15.9-5.67-33.19-19.48-42.74-8.37-5.82-17-6.25-26.65-6.25-6.58,0-29.77-.28-39.93-.28s-16.44-8.12-16.44-12.07c-6.43,7.87-11.34,16.57-9.62,27.09,1.55,9.47,8.04,15.52,17.54,16.72-10.77,15.21-20.5,32.71-20.02,51.25.3,11.69,2.98,58.06,55.41,58.06h9.55c22.39,0,35.95-16.62,39.89-23.01,11.59-18.9,13.53-48.15,9.86-68.68M902.05,98.25c-3.96,18.59-17.41,26.48-47.37,26.48-73.63,0-47.54-59.18-37.25-71.37,4.32-5.41,7.35-9.86,18.33-9.86h20.89c29.13,0,34.68,1.38,41.98,16.27,3.94,8.02,6.23,25.33,3.42,38.51"/>
      <path class="cls-1" d="M738.94,67.68v56.96h11.1v-61.15c0-6.04-4.07-10.11-10.11-10.11h-51.53v71.26h11.1v-60.16h36.12c1.97,0,3.33,1.36,3.33,3.21M663.08,96.28h11.1v-42.9h-11.1v42.9ZM592.77,124.64h67.07v-11.1h-10.97v-30.21c0-19.73-12.45-29.96-31.81-29.96h-22.07v11.1h21.94c14.05,0,20.84,6.66,20.84,18.99v30.08h-45v11.1ZM572.7,124.64h11.1V53.38h-11.1v71.26ZM546.73,83.46v41.18h11.1v-41.3c0-19.73-12.45-29.96-31.81-29.96h-24.04v11.1h23.92c14.05,0,20.84,6.9,20.84,18.99M484.64,96.28h11.1v-42.9h-11.1v42.9ZM421.17,113.54v-49.07h18.12c14.79,0,21.33,8.88,21.33,20.47v28.6h-39.45ZM410.08,124.64h61.64v-40.44c0-19.36-12.7-30.82-32.3-30.82h-29.34v71.26ZM310.34,124.64h67.07v-11.1h-10.97v-30.21c0-19.73-12.45-29.96-31.81-29.96h-22.07v11.1h21.94c14.05,0,20.84,6.66,20.84,18.99v30.08h-45v11.1ZM244.6,89.01c0-15.53,10.6-26.75,25.39-26.75s25.52,11.22,25.52,26.75-10.85,27-25.52,27-25.39-11.34-25.39-27M269.99,126.36c21.33,0,37.36-16.52,37.36-37.36s-15.9-37.11-37.23-37.11-37.36,16.4-37.36,37.23,15.9,37.23,37.23,37.23M163.91,124.64h29.59c18.61,0,29.46-10.11,29.46-27.99v-43.27h-59.05v41.42h25.4v-11.1h-14.43v-19.23h36.99v31.19c0,11.59-6.41,17.88-18.99,17.88h-28.97v11.1ZM138.66,83.46v41.18h11.1v-41.3c0-19.73-12.45-29.96-31.81-29.96h-24.04v11.1h23.92c14.05,0,20.84,6.9,20.84,18.99M76.57,96.28h11.1v-42.9h-11.1v42.9ZM51.65,124.64h13.81l-18.12-25.03,16.15-16.15v-30.08h-11.1v25.52l-11.59,11.59L14.05,53.38H0l13.07,18C4.44,79.64.49,91.72.49,104.17v20.47h11.1v-22.07c0-6.66,1.48-15.41,7.77-22.44l32.3,44.5Z"/>
    </g>
  </g>
</svg>

<svg width="912" height="154" viewBox="0 0 912 154" fill="none" xmlns="http://www.w3.org/2000/svg">
<g clip-path="url(#clip0_1_27)">
<path d="M909.96 61.33C907.49 45.43 904.29 28.14 890.48 18.59C882.11 12.77 873.48 12.34 863.83 12.34C857.25 12.34 834.06 12.06 823.9 12.06C813.74 12.06 807.46 3.93999 807.46 -0.0100098C801.03 7.85999 796.12 16.56 797.84 27.08C799.39 36.55 805.88 42.6 815.38 43.8C804.61 59.01 794.88 76.51 795.36 95.05C795.66 106.74 798.34 153.11 850.77 153.11H860.32C882.71 153.11 896.27 136.49 900.21 130.1C911.8 111.2 913.74 81.95 910.07 61.42M902.05 98.25C898.09 116.84 884.64 124.73 854.68 124.73C781.05 124.73 807.14 65.55 817.43 53.36C821.75 47.95 824.78 43.5 835.76 43.5H856.65C885.78 43.5 891.33 44.88 898.63 59.77C902.57 67.79 904.86 85.1 902.05 98.28" fill="#518159"/>
<path d="M738.94 67.68V124.64H750.04V63.49C750.04 57.45 745.97 53.38 739.93 53.38H688.4V124.64H699.5V64.48H735.62C737.59 64.48 738.95 65.84 738.95 67.69M663.08 96.28H674.18V53.38H663.08V96.28ZM592.77 124.64H659.84V113.54H648.87V83.33C648.87 63.6 636.42 53.37 617.06 53.37H594.99V64.47H616.93C630.98 64.47 637.77 71.13 637.77 83.46V113.54H592.77V124.64ZM572.7 124.64H583.8V53.38H572.7V124.64ZM546.73 83.46V124.64H557.83V83.34C557.83 63.61 545.38 53.38 526.02 53.38H501.98V64.48H525.9C539.95 64.48 546.74 71.38 546.74 83.47M484.64 96.28H495.74V53.38H484.64V96.28ZM421.17 113.54V64.47H439.29C454.08 64.47 460.62 73.35 460.62 84.94V113.54H421.17ZM410.08 124.64H471.72V84.2C471.72 64.84 459.02 53.38 439.42 53.38H410.08V124.64ZM310.34 124.64H377.41V113.54H366.44V83.33C366.44 63.6 353.99 53.37 334.63 53.37H312.56V64.47H334.5C348.55 64.47 355.34 71.13 355.34 83.46V113.54H310.34V124.64ZM244.6 89.01C244.6 73.48 255.2 62.26 269.99 62.26C284.78 62.26 295.51 73.48 295.51 89.01C295.51 104.54 284.66 116.01 269.99 116.01C255.32 116.01 244.6 104.67 244.6 89.01ZM269.99 126.36C291.32 126.36 307.35 109.84 307.35 89C307.35 68.16 291.45 51.89 270.12 51.89C248.79 51.89 232.76 68.29 232.76 89.12C232.76 109.95 248.66 126.35 269.99 126.35M163.91 124.64H193.5C212.11 124.64 222.96 114.53 222.96 96.65V53.38H163.91V94.8H189.31V83.7H174.88V64.47H211.87V95.66C211.87 107.25 205.46 113.54 192.88 113.54H163.91V124.64ZM138.66 83.46V124.64H149.76V83.34C149.76 63.61 137.31 53.38 117.95 53.38H93.91V64.48H117.83C131.88 64.48 138.67 71.38 138.67 83.47M76.57 96.28H87.67V53.38H76.57V96.28ZM51.65 124.64H65.46L47.34 99.61L63.49 83.46V53.38H52.39V78.9L40.8 90.49L14.05 53.38H0L13.07 71.38C4.44 79.64 0.49 91.72 0.49 104.17V124.64H11.59V102.57C11.59 95.91 13.07 87.16 19.36 80.13L51.66 124.63L51.65 124.64Z" fill="#231F20"/>
</g>
<defs>
<clipPath id="clip0_1_27">
<rect width="911.76" height="153.12" fill="white"/>
</clipPath>
</defs>
</svg>
